assets/img/braze_icons/droplets-03.svg

<svg fill="none" height="24" viewBox="0 0 24 24" width="24" xmlns="http://www.w3.org/2000/svg"><g fill="#801ed7"><path d="m7.98058 4.58367c-.09348-.46742-.5039-.80388-.98058-.80388s-.8871.33646-.98058.80388c-.24363 1.21817-.96695 2.40152-1.93412 3.17525-1.34316 1.07453-2.0853 2.46478-2.0853 3.97088 0 2.7593 2.23484 5.05 5 5.05s5-2.2907 5-5.05c0-1.524-.7593-2.88919-2.07787-3.96488-.96895-.79046-1.69921-1.96954-1.94155-3.18125z"/><path d="m14 1.5c.4767 0 .8871.33646.9806.80388.452 2.2599 1.8202 4.45614 3.6441 5.91525 2.179 1.74319 3.3746 3.90907 3.3753 6.27877.0061 1.5796-.4567 3.1256-1.3298 4.4419-.8736 1.317-2.1185 2.345-3.5769 2.9536-.9846.4108-2.0366.6181-3.0932.6154-1.0567.0027-2.1087-.2046-3.0933-.6154-1.08671-.4535-2.05641-1.1423-2.84043-2.0071-.27284-.3009-.40927-.4514-.42759-.6111-.01619-.1412.02614-.2777.11936-.385.10548-.1214.35263-.18.84691-.2973 3.10955-.738 5.39495-3.5702 5.39495-6.8631 0-1.96443-.8657-3.65751-2.1991-4.96527-.2058-.20192-.3088-.30288-.3478-.3984-.0384-.09394-.0469-.16597-.0312-.26624.0159-.10196.0915-.22211.2428-.4624.6509-1.03405 1.1231-2.17547 1.3547-3.33361.0935-.46742.5039-.80388.9806-.80388z"/></g></svg>

<svg width="24" height="24" viewBox="0 0 24 24" fill="none" xmlns="http://www.w3.org/2000/svg">
<path d="M7.98058 4.58367C7.8871 4.11625 7.47668 3.77979 7 3.77979C6.52332 3.77979 6.1129 4.11625 6.01942 4.58367C5.77579 5.80184 5.05247 6.98519 4.0853 7.75892C2.74214 8.83345 2 10.2237 2 11.7298C2 14.4891 4.23484 16.7798 7 16.7798C9.76516 16.7798 12 14.4891 12 11.7298C12 10.2058 11.2407 8.84061 9.92213 7.76492C8.95318 6.97446 8.22292 5.79538 7.98058 4.58367Z" fill="#801ED7"/>
<path d="M14 1.5C14.4767 1.5 14.8871 1.83646 14.9806 2.30388C15.4326 4.56378 16.8008 6.76002 18.6247 8.21913C20.8037 9.96232 21.9993 12.1282 22 14.4979C22.0061 16.0775 21.5433 17.6235 20.6702 18.9398C19.7966 20.2568 18.5517 21.2848 17.0933 21.8934C16.1087 22.3042 15.0567 22.5115 14.0001 22.5088C12.9434 22.5115 11.8914 22.3042 10.9068 21.8934C9.82009 21.4399 8.85039 20.7511 8.06637 19.8863C7.79353 19.5854 7.6571 19.4349 7.63878 19.2752C7.62259 19.134 7.66492 18.9975 7.75814 18.8902C7.86362 18.7688 8.11077 18.7102 8.60505 18.5929C11.7146 17.8549 14 15.0227 14 11.7298C14 9.76537 13.1343 8.07229 11.8009 6.76453C11.5951 6.56261 11.4921 6.46165 11.4531 6.36613C11.4147 6.27219 11.4062 6.20016 11.4219 6.09989C11.4378 5.99793 11.5134 5.87778 11.6647 5.63749C12.3156 4.60344 12.7878 3.46202 13.0194 2.30388C13.1129 1.83646 13.5233 1.5 14 1.5Z" fill="#801ED7"/>
</svg>
